X: 264
T: Pa laopuo
L: 1/8
M: 2/4
K: G
d2B d [I:setbarnb 1]| 
d2B2 | 
d d/ B/ A d | 
G ED2 | 
FA2B | 
dA2B | 
G F E B, | 
D4 |]

@@@ Tune index: 9138
